Catalina-dark/actions/22/document-edit-decrypt.svg

<svg xmlns="http://www.w3.org/2000/svg" viewBox="0 0 22 22">
  <defs id="defs3051">
    <style type="text/css" id="current-color-scheme">
      .ColorScheme-Text {
        color:#f2f2f2
      }
      </style>
  </defs>
    <path
       style="fill:currentColor;fill-opacity:1;stroke:none"
       class="ColorScheme-Text"
       d="M 4.77672,3 C 4.34579,3 4,3.35758 4,3.80078 L 4,18.19922 C 4,18.64242 4.34579,19 4.77672,19 l 12.44656,0 C 17.65421,19 18,18.64242 18,18.19922 L 18,3.80078 C 18,3.35758 17.65421,3 17.22328,3 L 4.77672,3 Z M 5.65409,3.73633 A 0.88559081,0.91079472 0 0 1 6.54096,4.64648 0.88559081,0.91079472 0 0 1 5.65409,5.55859 0.88559081,0.91079472 0 0 1 4.76913,4.64648 0.88559081,0.91079472 0 0 1 5.65409,3.73633 Z m 2.15356,0 A 0.88559081,0.91079472 0 0 1 8.69451,4.64648 0.88559081,0.91079472 0 0 1 7.80765,5.55859 0.88559081,0.91079472 0 0 1 6.92268,4.64648 0.88559081,0.91079472 0 0 1 7.80765,3.73633 Z m 2.17065,0 A 0.88559081,0.91079472 0 0 1 10.86517,4.64648 0.88559081,0.91079472 0 0 1 9.9783,5.55859 0.88559081,0.91079472 0 0 1 9.09332,4.64648 0.88559081,0.91079472 0 0 1 9.9783,3.73633 Z m 2.14785,0 a 0.88559081,0.91079472 0 0 1 0.88687,0.91015 0.88559081,0.91079472 0 0 1 -0.88687,0.91211 0.88559081,0.91079472 0 0 1 -0.88496,-0.91211 0.88559081,0.91079472 0 0 1 0.88496,-0.91015 z m 2.11367,0 A 0.88559081,0.91079472 0 0 1 15.1248,4.64648 0.88559081,0.91079472 0 0 1 14.23982,5.55664 0.88559081,0.91079472 0 0 1 13.35295,4.64648 0.88559081,0.91079472 0 0 1 14.23982,3.73633 Z m 2.10609,0 A 0.88559081,0.91079472 0 0 1 17.23087,4.64648 0.88559081,0.91079472 0 0 1 16.34591,5.55859 0.88559081,0.91079472 0 0 1 15.45904,4.64648 0.88559081,0.91079472 0 0 1 16.34591,3.73633 Z M 6.70809,5.91406 A 0.88559081,0.91079472 0 0 1 7.59305,6.82617 0.88559081,0.91079472 0 0 1 6.70809,7.73633 0.88559081,0.91079472 0 0 1 5.82311,6.82617 0.88559081,0.91079472 0 0 1 6.70809,5.91406 Z m 2.15355,0 A 0.88559081,0.91079472 0 0 1 9.74661,6.82422 0.88559081,0.91079472 0 0 1 8.86164,7.73633 0.88559081,0.91079472 0 0 1 7.97477,6.82422 0.88559081,0.91079472 0 0 1 8.86164,5.91406 Z m 2.17064,0 a 0.88559081,0.91079472 0 0 1 0.88497,0.91016 0.88559081,0.91079472 0 0 1 -0.88497,0.91211 0.88559081,0.91079472 0 0 1 -0.88496,-0.91211 0.88559081,0.91079472 0 0 1 0.88496,-0.91016 z m 2.14786,0 a 0.88559081,0.91079472 0 0 1 0.88497,0.91016 0.88559081,0.91079472 0 0 1 -0.88497,0.91211 0.88559081,0.91079472 0 0 1 -0.88687,-0.91211 0.88559081,0.91079472 0 0 1 0.88687,-0.91016 z m 2.11177,0 A 0.88559081,0.91079472 0 0 1 16.17689,6.82422 0.88559081,0.91079472 0 0 1 15.29191,7.73633 0.88559081,0.91079472 0 0 1 14.40694,6.82422 0.88559081,0.91079472 0 0 1 15.29191,5.91406 Z M 5.65409,8.11133 A 0.88559081,0.91079472 0 0 1 6.54096,9.02344 0.88559081,0.91079472 0 0 1 5.65409,9.93359 0.88559081,0.91079472 0 0 1 4.76913,9.02344 0.88559081,0.91079472 0 0 1 5.65409,8.11133 Z m 2.15356,0 A 0.88559081,0.91079472 0 0 1 8.69451,9.02148 0.88559081,0.91079472 0 0 1 7.80765,9.93359 0.88559081,0.91079472 0 0 1 6.92268,9.02148 0.88559081,0.91079472 0 0 1 7.80765,8.11133 Z m 2.17065,0 A 0.88559081,0.91079472 0 0 1 10.86517,9.02148 0.88559081,0.91079472 0 0 1 9.9783,9.93359 0.88559081,0.91079472 0 0 1 9.09332,9.02148 0.88559081,0.91079472 0 0 1 9.9783,8.11133 Z m 2.14785,0 a 0.88559081,0.91079472 0 0 1 0.88687,0.91015 0.88559081,0.91079472 0 0 1 -0.88687,0.91211 0.88559081,0.91079472 0 0 1 -0.88496,-0.91211 0.88559081,0.91079472 0 0 1 0.88496,-0.91015 z m 2.11367,0 A 0.88559081,0.91079472 0 0 1 15.1248,9.02148 0.88559081,0.91079472 0 0 1 14.23982,9.93359 0.88559081,0.91079472 0 0 1 13.35295,9.02148 0.88559081,0.91079472 0 0 1 14.23982,8.11133 Z m 2.10609,0 a 0.88559081,0.91079472 0 0 1 0.88496,0.91015 0.88559081,0.91079472 0 0 1 -0.88496,0.91211 0.88559081,0.91079472 0 0 1 -0.88687,-0.91211 0.88559081,0.91079472 0 0 1 0.88687,-0.91015 z"
        />
</svg>

<svg viewBox="0 0 22 22" xmlns="http://www.w3.org/2000/svg">
<defs>
<style id="current-color-scheme" type="text/css">.ColorScheme-Text {
        color:#f2f2f2
      }</style>
</defs>
<path class="ColorScheme-Text" d="m4.7767 3c-0.43093 0-0.77672 0.35758-0.77672 0.80078v14.398c0 0.4432 0.34579 0.80078 0.77672 0.80078h12.447c0.43093 0 0.77672-0.35758 0.77672-0.80078v-14.398c0-0.4432-0.34579-0.80078-0.77672-0.80078h-12.447zm0.87737 0.73633a0.88559 0.91079 0 0 1 0.88687 0.91015 0.88559 0.91079 0 0 1-0.88687 0.91211 0.88559 0.91079 0 0 1-0.88496-0.91211 0.88559 0.91079 0 0 1 0.88496-0.91015zm2.1536 0a0.88559 0.91079 0 0 1 0.88686 0.91015 0.88559 0.91079 0 0 1-0.88686 0.91211 0.88559 0.91079 0 0 1-0.88497-0.91211 0.88559 0.91079 0 0 1 0.88497-0.91015zm2.1706 0a0.88559 0.91079 0 0 1 0.88687 0.91015 0.88559 0.91079 0 0 1-0.88687 0.91211 0.88559 0.91079 0 0 1-0.88498-0.91211 0.88559 0.91079 0 0 1 0.88498-0.91015zm2.1478 0a0.88559 0.91079 0 0 1 0.88687 0.91015 0.88559 0.91079 0 0 1-0.88687 0.91211 0.88559 0.91079 0 0 1-0.88496-0.91211 0.88559 0.91079 0 0 1 0.88496-0.91015zm2.1137 0a0.88559 0.91079 0 0 1 0.88498 0.91015 0.88559 0.91079 0 0 1-0.88498 0.91016 0.88559 0.91079 0 0 1-0.88687-0.91016 0.88559 0.91079 0 0 1 0.88687-0.91015zm2.1061 0a0.88559 0.91079 0 0 1 0.88496 0.91015 0.88559 0.91079 0 0 1-0.88496 0.91211 0.88559 0.91079 0 0 1-0.88687-0.91211 0.88559 0.91079 0 0 1 0.88687-0.91015zm-9.6378 2.1777a0.88559 0.91079 0 0 1 0.88496 0.91211 0.88559 0.91079 0 0 1-0.88496 0.91016 0.88559 0.91079 0 0 1-0.88498-0.91016 0.88559 0.91079 0 0 1 0.88498-0.91211zm2.1536 0a0.88559 0.91079 0 0 1 0.88497 0.91016 0.88559 0.91079 0 0 1-0.88497 0.91211 0.88559 0.91079 0 0 1-0.88687-0.91211 0.88559 0.91079 0 0 1 0.88687-0.91016zm2.1706 0a0.88559 0.91079 0 0 1 0.88497 0.91016 0.88559 0.91079 0 0 1-0.88497 0.91211 0.88559 0.91079 0 0 1-0.88496-0.91211 0.88559 0.91079 0 0 1 0.88496-0.91016zm2.1479 0a0.88559 0.91079 0 0 1 0.88497 0.91016 0.88559 0.91079 0 0 1-0.88497 0.91211 0.88559 0.91079 0 0 1-0.88687-0.91211 0.88559 0.91079 0 0 1 0.88687-0.91016zm2.1118 0a0.88559 0.91079 0 0 1 0.88498 0.91016 0.88559 0.91079 0 0 1-0.88498 0.91211 0.88559 0.91079 0 0 1-0.88497-0.91211 0.88559 0.91079 0 0 1 0.88497-0.91016zm-9.6378 2.1973a0.88559 0.91079 0 0 1 0.88687 0.91211 0.88559 0.91079 0 0 1-0.88687 0.91015 0.88559 0.91079 0 0 1-0.88496-0.91015 0.88559 0.91079 0 0 1 0.88496-0.91211zm2.1536 0a0.88559 0.91079 0 0 1 0.88686 0.91015 0.88559 0.91079 0 0 1-0.88686 0.91211 0.88559 0.91079 0 0 1-0.88497-0.91211 0.88559 0.91079 0 0 1 0.88497-0.91015zm2.1706 0a0.88559 0.91079 0 0 1 0.88687 0.91015 0.88559 0.91079 0 0 1-0.88687 0.91211 0.88559 0.91079 0 0 1-0.88498-0.91211 0.88559 0.91079 0 0 1 0.88498-0.91015zm2.1478 0a0.88559 0.91079 0 0 1 0.88687 0.91015 0.88559 0.91079 0 0 1-0.88687 0.91211 0.88559 0.91079 0 0 1-0.88496-0.91211 0.88559 0.91079 0 0 1 0.88496-0.91015zm2.1137 0a0.88559 0.91079 0 0 1 0.88498 0.91015 0.88559 0.91079 0 0 1-0.88498 0.91211 0.88559 0.91079 0 0 1-0.88687-0.91211 0.88559 0.91079 0 0 1 0.88687-0.91015zm2.1061 0a0.88559 0.91079 0 0 1 0.88496 0.91015 0.88559 0.91079 0 0 1-0.88496 0.91211 0.88559 0.91079 0 0 1-0.88687-0.91211 0.88559 0.91079 0 0 1 0.88687-0.91015z" fill="currentColor"/>
</svg>
